!!!COM: Beethoven
!!!OTL: 24 Variationen uber Venni Amore von V. Righini
!!!Variation: Variation 10 b
**function	**harm	**kern	**kern	**kern	**kern
*M2/4	*M2/4	*staff3	*staff4	*staff1	*staff2
*D:	*D:	*clefF4	*clefF4	*clefG2	*clefG2
*tb8	*	*k[f#c#]	*k[f#c#]	*k[f#c#]	*k[f#c#]
*	*	*M2/4	*M2/4	*M2/4	*M2/4
*	*	*D:	*D:	*D:	*D:
=	=	=-	=-	=-	=-
2D	2V65	4r	4r	(8eL	2r
.	.	.	.	8gg'J)	.
.	.	[4A	(4C#	4r	.
=	=	=177	=177	=177	=177
2D	2I	2A_	8DL)	4r	2r
.	.	.	8F#J	.	.
.	.	.	4r	(8ff#L	.
.	.	.	.	8d'J)	.
=	=	=178	=178	=178	=178
2D	2V65	4A]	4r	(8eL	2r
.	.	.	.	8gg'J)	.
.	.	[4A	(4C#	4r	.
=	=	=179	=179	=179	=179
2D	2I	2A_	8DL)	4r	2r
.	.	.	8F#J	.	.
.	.	.	4r	(8ff#L	.
.	.	.	.	8d'J)	.
=	=	=180	=180	=180	=180
2D	2V65	4A]	4r	(8eL	2r
.	.	.	.	8gg'J)	.
.	.	4r	8C#' 8A'	4r	.
.	.	.	8r	.	.
=	=	=181	=181	=181	=181
2D	2I	2r	4r	(8ff#L	2r
.	.	.	.	8d'J)	.
.	.	.	8D' 8A'	4r	.
.	.	.	8r	.	.
=	=	=182	=182	=182	=182
4.D	4.V	2r	8r	(8eeL	2r
.	.	.	8AA' 8A'	8d'J)	.
.	.	.	8r	(8c#L	.
8D	8V7	.	8AA' 8G'	8ee'J)	.
=	=	=183	=183	=183	=183
2T	2I	2r	8r	(8dL	2r
.	.	.	8D 8F#	8dd'J)	.
.	.	.	8DD	4r	.
.	.	.	8r	.	.
=	=	=184:|!	=184:|!	=184:|!	=184:|!
*-	*-	*-	*-	*-	*-
